X:1
T:In Chapel Park
T:In Chapel Park
T:Collected by Jekyll Sung by Thomas Colcombe
C:Collected by Jekyll
C:Sung by Thomas Colcombe
L:1/8
Q:1/4=100
M:5/4
K:G
V:1 treble 
V:1
"^(Editorial suggestion" D2 | G2 G2 G2 B2 G2 | E2 E2 E4 G2 | A2 A2 c2 A2 F2 | D2 D2 D4 B2 | %5
 d2 d2 B2 c2 d2 | e2 c2 A4 G2 | A2 A2 D2 E2 F2 | G2 G2 G4 |] %9
[M:4/4][Q:1/4=100]"^(Editorial suggestion)" GA | B2 B2 A2 B2 | G2 G2 AG E2 | D2 D2 E2 E2 | E6 E2 | %14
 G2 E2 G2 B2 | e4 d2 B2 | G2 G2"^(a)" AG A2 | B6 E2 | G2 E2 G2 A2 | B2 e2 d2 B2 | %20
 G2 G2"^(b)" AG A2 | B6 GA | B2 B2 A2 B2 | G2 G2 AG E2 | D2 D2 E2 E2 | E6 || GA | B2 B2 A2 B2 | %28
 G2 G2 AG E2 | D2 D2 E2 E2 | E6 E2 | G2 E2 G2 B2 | e4 d2 B2 | G2 G2"^(a) var." A2 A2 | B6 E2 | %35
 G2 E2 G2 A2 | B2 e2 d2 B2 | G2 G2"^(b) var." A2 A2 | B6 GA | B2 B2 A2 B2 | G2 G2 AG E2 | %41
 D2 D2 E2 E2 | E6 |][K:F][M:4/4][Q:1/4=110]"^(Editorial suggestion)" FG | A2 F2 AB c2 | %45
 d2 G2 B2 AG | F2 D2 F2 F2 | F6 c2 | d3 c de f2 | A3 G F2 FA | c2 c2 dc A2 | G6 c2 | d3 c de f2 | %53
 A3 G F2 FA | c2 c2 dc A2 | G6 FG | A2 F2 AB c2 | d2 G2 B2 AG | F2 D2 F2 F2 | F6 |] %60
[K:G][M:3/4][Q:1/4=54]"^(Editorial suggestion)" D | GG G2 AB/c/ | BA/G/ GD z A/B/ | cc B2 GE | %64
 FG A2 z A | Be d2 GA | BA/G/ G"^(a)"E z B | AD GB dc | BA G2 z || D | GG G2 AB/c/ | %71
 BA/G/ GD z A/B/ | cc B2 GE | FG A2 z A | Be d2 GA | BA/G/ G"^(a) var."D z B | AD GB dc | %77
 BA G2 z |][M:4/4][Q:1/4=110]"^(Editorial suggestion)" BA | G2 E2 B2 B2 | AG F2 E2 d2 | %81
"^(a)" Bc d2 e2 e2 | E2 d2 !fermata!B2 B2 | Bc d2 e2 e2 | dB G2 A2 GA | B2 c2 d2 EE | %86
 G2 F2 !fermata!E2 || BA | G2 E2 B2 B2 | AG F2 E2 d2 |"^(a) var." B2 d2 e2 e2 | %91
 E2 d2 !fermata!B2 B2 | Bc d2 e2 e2 | dB G2 A2 GA | B2 c2 d2 EE | G2 F2 !fermata!E2 |] %96
[M:6/8][Q:1/4=100]"^(Editorial suggestion)" D | GAB BAG | F D2 z2 D | GAB c>BA | d3 z dc | %101
 BGB cAG | F D2 A2 G | ECE DEF | G3 z2 |] %105

